X:79
T:Waltz from Pajala (harmony)
M:3/4
L:1/8
Q:1/4=140
R:waltz
K:A
|: E2 | "A" A6 | c6 | "Bm" B6 | d6 |
"E7" e6 | [d2E2] [c2F2] [B2G2] | "A" A2 G2 F2 | c2 B4 | !
A6 | c6 | "Bm" B6 | d6 |
"E" e6 | E2 F2 G2 | "A" A2 [c2E2] [B2C2] | [A2A,2] z2 :| !
|: E2 | "A" A6 | c6 | A2 c2 ^d2 | "E" e6 |
{A}B6 | G6 | "D" F2 G2 F2 | "A" E6 | !
A2 A4 | "F#m" F6 | F6 | "Bm" B4 c2 | d2 z2 d2 |
"E" e6 | E2 F2 G2 | "A" A2 E2 C2 | A,6 :|

% ------------------------------------------------------------------------
% This second of two sections contains the tunes added to the site after
% 6 September 2010.
% Updates to this section: 15 September 2010

